icons/svgs/pause-circle-solid.svg

<svg width="24" height="24" viewBox="0 0 24 24" fill="none" xmlns="http://www.w3.org/2000/svg">
<path d="M12 22C8.40625 22 5.125 20.125 3.32812 17C1.53125 13.9141 1.53125 10.125 3.32812 7C5.125 3.91406 8.40625 2 12 2C15.5547 2 18.8359 3.91406 20.6328 7C22.4297 10.125 22.4297 13.9141 20.6328 17C18.8359 20.125 15.5547 22 12 22ZM10.75 9.5C10.75 8.83594 10.1641 8.25 9.5 8.25C8.79688 8.25 8.25 8.83594 8.25 9.5V14.5C8.25 15.2031 8.79688 15.75 9.5 15.75C10.1641 15.75 10.75 15.2031 10.75 14.5V9.5ZM15.75 9.5C15.75 8.83594 15.1641 8.25 14.5 8.25C13.7969 8.25 13.25 8.83594 13.25 9.5V14.5C13.25 15.2031 13.7969 15.75 14.5 15.75C15.1641 15.75 15.75 15.2031 15.75 14.5V9.5Z" fill="black"/>
</svg>

<svg xmlns="http://www.w3.org/2000/svg" width="24" height="24" fill="currentColor" class="icon-pause-circle-solid" viewBox="0 0 24 24">
  <mask id="a" width="21" height="20" x="1" y="2" maskUnits="userSpaceOnUse" style="mask-type:alpha">
    <path d="M12 22c-3.594 0-6.875-1.875-8.672-5-1.797-3.086-1.797-6.875 0-10C5.125 3.914 8.406 2 12 2c3.555 0 6.836 1.914 8.633 5 1.797 3.125 1.797 6.914 0 10A9.93 9.93 0 0 1 12 22M10.75 9.5c0-.664-.586-1.25-1.25-1.25-.703 0-1.25.586-1.25 1.25v5c0 .703.547 1.25 1.25 1.25.664 0 1.25-.547 1.25-1.25zm5 0c0-.664-.586-1.25-1.25-1.25-.703 0-1.25.586-1.25 1.25v5c0 .703.547 1.25 1.25 1.25.664 0 1.25-.547 1.25-1.25z"/>
  </mask>
  <g mask="url(#a)">
    <path d="M0 0h24v24H0z"/>
  </g>
</svg>
